icons/dimension-filled.svg

<svg width="256" height="256" viewBox="0 0 256 256" fill="none" xmlns="http://www.w3.org/2000/svg">
<path d="M196 0H60C26.8629 0 0 26.8629 0 60V196C0 229.137 26.8629 256 60 256H196C229.137 256 256 229.137 256 196V60C256 26.8629 229.137 0 196 0Z" fill="#013301"/>
<path d="M43.0037 179.2V76.8C42.9788 76.4821 43.0803 76.1672 43.2863 75.9237C43.4923 75.6803 43.7861 75.528 44.1037 75.5H44.2037C45.8037 75.4 48.2037 75.3 51.3037 75.3C54.4037 75.3 58.1037 75.2 62.2037 75.1C66.3037 75 70.8037 75 75.6037 75C88.5037 75 99.2037 77.2 107.604 81.6C115.629 85.5991 122.279 91.901 126.704 99.7C131.052 107.847 133.254 116.967 133.104 126.2C133.213 133.174 132.096 140.113 129.804 146.7C127.777 152.343 124.726 157.564 120.804 162.1C117.058 166.326 112.671 169.937 107.804 172.8C102.977 175.654 97.7533 177.777 92.3037 179.1C86.97 180.417 81.4975 181.088 76.0037 181.1H64.0037C59.8037 181.1 55.8037 181.1 52.2037 181C48.6037 180.9 45.8037 180.9 44.0037 180.8C43.3037 180.8 43.0037 180.2 43.0037 179.2ZM65.2037 94.8V161.5C66.2714 161.478 67.3395 161.512 68.4037 161.6C69.4037 161.7 70.4037 161.7 71.4037 161.8C72.4037 161.9 73.6037 161.9 74.9037 161.9C79.7693 161.991 84.6121 161.213 89.2037 159.6C93.3409 158.202 97.1034 155.876 100.204 152.8C103.359 149.668 105.783 145.878 107.304 141.7C109.03 136.891 109.877 131.81 109.804 126.7C109.911 121.89 109.096 117.104 107.404 112.6C105.926 108.714 103.524 105.247 100.404 102.5C97.2689 99.7042 93.5428 97.6531 89.5037 96.5C84.9926 95.1698 80.3063 94.5292 75.6037 94.6C73.5037 94.6 71.7037 94.6 70.2037 94.7C68.5365 94.6362 66.867 94.6695 65.2037 94.8Z" fill="#33FF66"/>
<path d="M142.804 179.3V119.4C142.804 117.6 142.804 115.5 142.704 113.3C142.604 111.1 142.604 108.9 142.504 106.9C142.404 104.9 142.304 103.3 142.204 102.1C142.144 101.931 142.132 101.749 142.167 101.573C142.202 101.397 142.284 101.233 142.404 101.1C142.697 100.897 143.047 100.792 143.404 100.8H160.004C160.552 100.793 161.096 100.895 161.604 101.1C161.812 101.21 161.992 101.367 162.131 101.558C162.27 101.748 162.363 101.968 162.404 102.2C162.604 102.8 162.904 103.6 163.104 104.4C163.4 105.378 163.601 106.383 163.704 107.4C166.821 104.693 170.416 102.59 174.304 101.2C178.204 99.8889 182.289 99.2136 186.404 99.2C189.597 99.1936 192.771 99.7001 195.804 100.7C199.302 101.837 202.492 103.763 205.128 106.329C207.764 108.896 209.774 112.033 211.004 115.5C212.604 119.6 213.404 125 213.404 131.5V179.3C213.404 180.3 213.004 180.7 212.104 180.7H192.604C192.419 180.731 192.231 180.724 192.049 180.68C191.867 180.636 191.696 180.555 191.547 180.443C191.397 180.331 191.272 180.189 191.178 180.027C191.085 179.865 191.026 179.686 191.004 179.5V133.4C191.093 130.6 190.617 127.811 189.604 125.2C188.729 123.067 187.206 121.264 185.25 120.043C183.294 118.823 181.004 118.248 178.704 118.4C176.103 118.361 173.52 118.836 171.104 119.8C168.903 120.717 166.874 122.002 165.104 123.6V179.3C165.104 180.3 164.704 180.7 163.804 180.7H144.204C144.039 180.722 143.872 180.711 143.712 180.668C143.552 180.624 143.402 180.549 143.271 180.446C143.141 180.344 143.032 180.216 142.952 180.071C142.871 179.925 142.821 179.765 142.804 179.6V179.3Z" fill="#33FF66"/>
</svg>

<svg xmlns="http://www.w3.org/2000/svg" width="256" height="256" fill="none"><path fill="#013301" d="M196 0H60C26.863 0 0 26.863 0 60v136c0 33.137 26.863 60 60 60h136c33.137 0 60-26.863 60-60V60c0-33.137-26.863-60-60-60"/><path fill="#3F6" d="M43.004 179.2V76.8a1.21 1.21 0 0 1 1.1-1.3h.1c1.6-.1 4-.2 7.1-.2s6.8-.1 10.9-.2 8.6-.1 13.4-.1c12.9 0 23.6 2.2 32 6.6a45.1 45.1 0 0 1 19.1 18.1 54.4 54.4 0 0 1 6.4 26.5 59.6 59.6 0 0 1-3.3 20.5 48.7 48.7 0 0 1-9 15.4 53.9 53.9 0 0 1-13 10.7 56.8 56.8 0 0 1-15.5 6.3 68.6 68.6 0 0 1-16.3 2h-12c-4.2 0-8.2 0-11.8-.1s-6.4-.1-8.2-.2c-.7 0-1-.6-1-1.6m22.2-84.4v66.7a31 31 0 0 1 3.2.1c1 .1 2 .1 3 .2s2.2.1 3.5.1a40.8 40.8 0 0 0 14.3-2.3 28.6 28.6 0 0 0 11-6.8 30.2 30.2 0 0 0 7.1-11.1 42.6 42.6 0 0 0 2.5-15 37.7 37.7 0 0 0-2.4-14.1 25.56 25.56 0 0 0-7-10.1 27.9 27.9 0 0 0-10.9-6 46.7 46.7 0 0 0-13.9-1.9c-2.1 0-3.9 0-5.4.1a43 43 0 0 0-5 .1m77.6 84.5v-59.9c0-1.8 0-3.9-.1-6.1s-.1-4.4-.2-6.4q-.15-3-.3-4.8a1 1 0 0 1 .2-1 1.7 1.7 0 0 1 1-.3h16.6a4.1 4.1 0 0 1 1.6.3 1.55 1.55 0 0 1 .8 1.1c.2.6.5 1.4.7 2.2.296.978.497 1.983.6 3a33.2 33.2 0 0 1 10.6-6.2 38.4 38.4 0 0 1 12.1-2c3.193-.006 6.367.5 9.4 1.5a24 24 0 0 1 15.2 14.8c1.6 4.1 2.4 9.5 2.4 16v47.8c0 1-.4 1.4-1.3 1.4h-19.5a1.38 1.38 0 0 1-1.426-.673 1.4 1.4 0 0 1-.174-.527v-46.1a20.8 20.8 0 0 0-1.4-8.2 11 11 0 0 0-10.9-6.8 19.7 19.7 0 0 0-7.6 1.4 21 21 0 0 0-6 3.8v55.7c0 1-.4 1.4-1.3 1.4h-19.6a1.25 1.25 0 0 1-1.252-.629 1.2 1.2 0 0 1-.148-.471z"/></svg>
